src/assets/outline/Like1.svg

<svg width="24" height="24" viewBox="0 0 24 24"  xmlns="http://www.w3.org/2000/svg">
<path d="M16.2799 22.1005H12.4799C11.9199 22.1005 10.6999 21.9305 10.0499 21.2805L7.01986 18.9405L7.93986 17.7505L11.0399 20.1505C11.2899 20.3905 11.9199 20.5905 12.4799 20.5905H16.2799C17.1799 20.5905 18.1499 19.8705 18.3499 19.0605L20.7699 11.7105C20.9299 11.2705 20.8999 10.8705 20.6899 10.5805C20.4699 10.2705 20.0699 10.0905 19.5799 10.0905H15.5799C15.0599 10.0905 14.5799 9.87048 14.2499 9.49048C13.9099 9.10048 13.7599 8.58048 13.8399 8.04048L14.3399 4.83048C14.4599 4.27048 14.0799 3.64048 13.5399 3.46048C13.0499 3.28048 12.4199 3.54048 12.1999 3.86048L8.09986 9.96048L6.85986 9.13048L10.9599 3.03048C11.5899 2.09048 12.9699 1.64048 14.0499 2.05048C15.2999 2.46048 16.0999 3.84048 15.8199 5.12048L15.3299 8.27048C15.3199 8.34048 15.3199 8.44048 15.3899 8.52048C15.4399 8.57048 15.5099 8.60048 15.5899 8.60048H19.5899C20.5699 8.60048 21.4199 9.01048 21.9199 9.72048C22.4099 10.4105 22.5099 11.3205 22.1899 12.2005L19.7999 19.4805C19.4299 20.9305 17.8899 22.1005 16.2799 22.1005Z" />
<path d="M5.37988 21.0004H4.37988C2.52988 21.0004 1.62988 20.1304 1.62988 18.3504V8.55039C1.62988 6.77039 2.52988 5.90039 4.37988 5.90039H5.37988C7.22988 5.90039 8.12988 6.77039 8.12988 8.55039V18.3504C8.12988 20.1304 7.22988 21.0004 5.37988 21.0004ZM4.37988 7.40039C3.28988 7.40039 3.12988 7.66039 3.12988 8.55039V18.3504C3.12988 19.2404 3.28988 19.5004 4.37988 19.5004H5.37988C6.46988 19.5004 6.62988 19.2404 6.62988 18.3504V8.55039C6.62988 7.66039 6.46988 7.40039 5.37988 7.40039H4.37988Z" />
</svg>

<?xml version="1.0" encoding="UTF-8"?>
<svg width="24" height="24" viewBox="0 0 24 24" xmlns="http://www.w3.org/2000/svg">
 <path d="m16.28 22.1h-3.8c-0.56 0-1.78-0.17-2.43-0.82l-3.03-2.34 0.92-1.19 3.1 2.4c0.25 0.24 0.88 0.44 1.44 0.44h3.8c0.9 0 1.87-0.72 2.07-1.53l2.42-7.35c0.16-0.44 0.13-0.84-0.08-1.13-0.22-0.31-0.62-0.49-1.11-0.49h-4c-0.52 0-1-0.22002-1.33-0.60002-0.34-0.39-0.49-0.91-0.41-1.45l0.5-3.21c0.12-0.56-0.26-1.19-0.8-1.37-0.49-0.18-1.12 0.08-1.34 0.4l-4.1 6.1-1.24-0.83 4.1-6.1c0.63-0.94 2.01-1.39 3.09-0.98 1.25 0.41 2.05 1.79 1.77 3.07l-0.49 3.15c-0.01 0.07-0.01 0.17 0.06 0.25 0.05 0.05 0.12 0.08 0.2 0.08h4c0.98 0 1.83 0.41 2.33 1.12 0.49 0.69002 0.59 1.6 0.27 2.48l-2.39 7.28c-0.37 1.45-1.91 2.62-3.52 2.62z"/>
 <path d="m5.3799 21h-1c-1.85 0-2.75-0.87-2.75-2.65v-9.8c0-1.78 0.9-2.65 2.75-2.65h1c1.85 0 2.75 0.87 2.75 2.65v9.8c0 1.78-0.9 2.65-2.75 2.65zm-1-13.6c-1.09 0-1.25 0.26-1.25 1.15v9.8c0 0.89 0.16 1.15 1.25 1.15h1c1.09 0 1.25-0.26 1.25-1.15v-9.8c0-0.89-0.16-1.15-1.25-1.15h-1z"/>
</svg>
